outputs/icons/device/wifi_round.svg

<svg xmlns="http://www.w3.org/2000/svg" width="1200" height="1200" fill="none"><g clip-path="url(#a)"><path fill="#000" d="M121.022 480.125c25.5 25.5 66 28 93.5 5 233.5-192 572.498-192 806.498-.5 28 23 69 21 94.5-4.5 29.5-29.5 27.5-78.5-5-105-285.5-233.5-698.498-233.5-984.498 0-32.5 26-35 75-5 105m387.998 388 73.5 73.5c19.5 19.5 51 19.5 70.5 0l73.5-73.5c23.5-23.5 18.5-64-11.5-79.5-61-31.5-134-31.5-195.5 0-28.498 15.5-33.998 56-10.5 79.5m-186.498-186.5c24.5 24.5 63 27 91.5 6.5 121.998-86.5 285.998-86.5 407.998 0 28.5 20 67 18 91.5-6.5l.5-.5c30-30 28-81-6.5-105.5-172-124.5-406.5-124.5-578.998 0-34.5 25-36.5 75.5-6 106"/></g><defs><clipPath id="a"><path fill="#fff" d="M0 0h1200v1200H0z"/></clipPath></defs></svg>

<svg width="1200" height="1200" viewBox="0 0 1200 1200" fill="none" xmlns="http://www.w3.org/2000/svg"><g clip-path="url(#clip0_833_2174)"><path d="M121.022 480.125C146.522 505.625 187.022 508.125 214.522 485.125C448.022 293.125 787.02 293.125 1021.02 484.625C1049.02 507.625 1090.02 505.625 1115.52 480.125C1145.02 450.625 1143.02 401.625 1110.52 375.125C825.02 141.625 412.022 141.625 126.022 375.125C93.522 401.125 91.022 450.125 121.022 480.125ZM509.02 868.125L582.52 941.625C602.02 961.125 633.52 961.125 653.02 941.625L726.52 868.125C750.02 844.625 745.02 804.125 715.02 788.625C654.02 757.125 581.02 757.125 519.52 788.625C491.022 804.125 485.522 844.625 509.02 868.125ZM322.522 681.625C347.022 706.125 385.522 708.625 414.022 688.125C536.02 601.625 700.02 601.625 822.02 688.125C850.52 708.125 889.02 706.125 913.52 681.625L914.02 681.125C944.02 651.125 942.02 600.125 907.52 575.625C735.52 451.125 501.02 451.125 328.522 575.625C294.022 600.625 292.022 651.125 322.522 681.625Z" fill="#1D1E23"/></g><defs><clipPath id="clip0_833_2174"><path width="24" fill="white" d="M0 0H1200V1200H0V0z"/></clipPath></defs></svg>
